X:1
T:Sapientia, 87.87 D
T:Sapientia, 87.87 D
T:Benjamin Franklin Nysewander, 1879
T:Public Domain Courtesy of the Cyber Hymnal™
C:Benjamin Franklin Nysewander, 1879
Z:Public Domain
Z:Courtesy of the Cyber Hymnal™
%%score ( 1 2 ) ( 3 4 )
L:1/8
Q:1/4=101
M:6/8
K:F
V:1 treble 
V:2 treble 
V:3 bass 
V:4 bass 
V:1
 F2 [FG] [FA]2 [EG] | [FA]2 [FB] [Fc]2 [FA] | F2 [FG] [FA]2 [FB] | [Fc]2 [FA] [EG]3 | %4
 F2 [FG] [FA]2 [EG] | [FA]2 [FB] [Fc]2 [FA] | F2 [EG] [FA]2 [FA] | [FA]2 [EG] F3 | %8
 [Fd]2 [Fd] (Bc)[Fd] | [Fc]2 [Fc] [FA]2 [FA] | [EB]2 [EB] [FA]2 [FA] | [EG]2 F [Ec]3 | %12
 F2 [FG] [FA]2 [EG] | [FA]2 [FB] [Fc]2 [Fc] | F2 [EG] [FA]2 [FA] | [FA]2 [EG] F3 |] %16
V:2
 F2 x4 | x6 | F2 x4 | x6 | F2 x4 | x6 | F2 x4 | x3 F3 | x3 F2 x | x6 | x6 | x2 F x3 | F2 x4 | x6 | %14
 F2 x4 | x3 F3 |] %16
V:3
 [F,A,]2 [F,B,] [F,C]2 [F,C] | [F,C]2 [F,B,] [F,A,]2 [F,C] | [F,A,]2 [F,B,] [F,C]2 [F,B,] | %3
 [F,A,]2 [F,C] [C,C]3 | [F,A,]2 [F,B,] [F,C]2 [F,C] | [F,C]2 [F,B,] [F,A,]2 [F,C] | %6
 [A,,C]2 [B,,C] [C,C]2 [C,C] | [C,C]2 [C,B,] [F,A,]3 | [B,,B,]2 [B,,B,] (DC)[B,,B,] | %9
 [F,A,]2 [F,A,] [F,C]2 [F,C] | [G,C]2 [G,C] [F,C]2 [F,C] | [B,,B,]2 [D,A,] [C,C]3 | %12
 [F,A,]2 [F,B,] [F,C]2 [F,C] | [F,C]2 [F,B,] [F,A,]2 [F,C] | [A,,C]2 [B,,C] [C,C]2 [C,C] | %15
 [C,C]2 [C,B,] [F,A,]3 |] %16
V:4
 x6 | x6 | x6 | x6 | x6 | x6 | x6 | x6 | x3 B,,2 x | x6 | x6 | x6 | x6 | x6 | x6 | x6 |] %16

